assets/post/images/formatstring1.svg

<svg width="3442" height="1305" xmlns="http://www.w3.org/2000/svg" xmlns:xlink="http://www.w3.org/1999/xlink" overflow="hidden"><defs><clipPath id="clip0"><rect x="313" y="-933" width="3442" height="1305"/></clipPath></defs><g clip-path="url(#clip0)" transform="translate(-313 933)"><path d="M1458.92-478.699 2609.34-478.699 2609.34-344.866 1458.92-344.866Z" fill="#FDEFE8" fill-rule="evenodd"/><path d="M1458.92-344.866 2609.34-344.866 2609.34-211.032 1458.92-211.032Z" fill="#FDEFE8" fill-rule="evenodd"/><path d="M1458.92-211.032 2609.34-211.032 2609.34-77.1989 1458.92-77.1989Z" fill="#FDEFE8" fill-rule="evenodd"/><path d="M1458.92-77.1989 2609.34-77.1989 2609.34 56.6345 1458.92 56.6345Z" fill="#F8CCB9" fill-rule="evenodd"/><path d="M1455.48-612.532 2612.77-612.532" stroke="#000000" stroke-width="6.875" stroke-linejoin="round" stroke-miterlimit="10" fill="none" fill-rule="evenodd"/><path d="M1455.48-478.699 2612.77-478.699" stroke="#000000" stroke-width="6.875" stroke-linejoin="round" stroke-miterlimit="10" fill="none" fill-rule="evenodd"/><path d="M1455.48-344.866 2612.77-344.866" stroke="#000000" stroke-width="6.875" stroke-linejoin="round" stroke-miterlimit="10" fill="none" fill-rule="evenodd"/><path d="M1455.48-211.032 2612.77-211.032" stroke="#000000" stroke-width="6.875" stroke-linejoin="round" stroke-miterlimit="10" fill="none" fill-rule="evenodd"/><path d="M1455.48-77.1989 2612.77-77.1989" stroke="#000000" stroke-width="6.875" stroke-linejoin="round" stroke-miterlimit="10" fill="none" fill-rule="evenodd"/><path d="M1455.48 56.6345 2612.77 56.6345" stroke="#000000" stroke-width="6.875" stroke-linejoin="round" stroke-miterlimit="10" fill="none" fill-rule="evenodd"/><path d="M1455.48 190.468 2612.77 190.468" stroke="#000000" stroke-width="6.875" stroke-linejoin="round" stroke-miterlimit="10" fill="none" fill-rule="evenodd"/><path d="M1458.92-746.366 1458.92 324.301" stroke="#000000" stroke-width="6.875" stroke-linejoin="round" stroke-miterlimit="10" fill="none" fill-rule="evenodd"/><path d="M2609.34-746.366 2609.34 324.301" stroke="#000000" stroke-width="6.875" stroke-linejoin="round" stroke-miterlimit="10" fill="none" fill-rule="evenodd"/><text font-family="Times New Roman,Times New Roman_MSFontService,sans-serif" font-weight="400" font-size="83" transform="matrix(1 0 0 1 1819.29 -387)">Address of <tspan font-family="Courier New,Courier New_MSFontService,sans-serif" font-size="83" x="380.417" y="0">c</tspan><tspan font-size="83" x="41.2387" y="134">Value of </tspan><tspan font-family="Courier New,Courier New_MSFontService,sans-serif" font-size="83" x="339.178" y="134">b</tspan><tspan font-size="83" x="41.2387" y="267">Value of </tspan><tspan font-family="Courier New,Courier New_MSFontService,sans-serif" font-size="83" x="339.178" y="267">a</tspan><tspan font-size="83" x="-189.635" y="407">Address of format string</tspan></text><path d="M2699.08-745.5 2699.08 283.917 2689.92 283.917 2689.92-745.5ZM2717.42 279.333 2694.5 325.167 2671.58 279.333Z"/><text font-family="Courier New,Courier New_MSFontService,sans-serif" font-weight="400" font-size="83" transform="matrix(1 0 0 1 810.127 -178)">p<tspan font-size="83" x="49.2709" y="0">rintf</tspan><tspan font-size="83" x="295.625" y="0">()</tspan><tspan font-family="Times New Roman,Times New Roman_MSFontService,sans-serif" font-size="83" x="394.167" y="0">’s</tspan><tspan font-family="Times New Roman,Times New Roman_MSFontService,sans-serif" font-size="83" x="-57.2687" y="105">internal pointer</tspan></text><path d="M9.95565e-06-4.58333 124.896-4.58306 124.896 4.5836-9.95565e-06 4.58333ZM120.313-22.9164 166.146 0.000360892 120.312 22.9169Z" transform="matrix(1 0 0 -1 1293.5 -152.5)"/><text font-family="Times New Roman,Times New Roman_MSFontService,sans-serif" font-weight="400" font-size="83" transform="matrix(1 0 0 1 2751.19 -230)">s<tspan font-size="83" x="32.0835" y="0">tack grows</tspan><tspan font-size="83" x="0" y="99">in this direction</tspan></text><path d="M1240.07-905.062 1328.3-905.062 1328.3-822.062 1240.07-822.062Z" fill="#FFFF00" fill-rule="evenodd"/><text fill="#0070C0" font-family="Courier New,Courier New_MSFontService,sans-serif" font-weight="400" font-size="73" transform="matrix(1 0 0 1 357.775 -845)">p<tspan font-size="73" x="44.1146" y="0">rintf</tspan><tspan fill="#000000" font-size="73" x="264.688" y="0">(</tspan><tspan fill="#7030A0" font-size="73" x="308.802" y="0">“a has value </tspan><tspan fill="#7030A0" font-weight="700" font-size="73" x="882.292" y="0">%d</tspan><tspan fill="#7030A0" font-size="73" x="970.521" y="0">, b has value </tspan><tspan fill="#7030A0" font-weight="700" font-size="73" x="1588.13" y="0">%d</tspan><tspan fill="#7030A0" font-size="73" x="1676.35" y="0">, c is at address: </tspan><tspan fill="#7030A0" font-weight="700" font-size="73" x="2514.53" y="0">%08x</tspan><tspan fill="#548235" font-size="73" x="2690.99" y="0">\</tspan><tspan fill="#548235" font-size="73" x="2735.1" y="0">n</tspan><tspan fill="#7030A0" font-size="73" x="2779.22" y="0">”</tspan><tspan fill="#000000" font-size="73" x="2823.33" y="0">, a, b, </tspan><tspan fill="#C00000" font-size="73" x="3176.25" y="0">&amp;</tspan><tspan fill="#000000" font-size="73" x="3220.36" y="0">c);</tspan></text></g></svg>

<svg xmlns="http://www.w3.org/2000/svg" width="3442" height="1305" overflow="hidden"><defs><clipPath id="a"><path d="M313-933h3442V372H313z"/></clipPath></defs><g clip-path="url(#a)" transform="translate(-313 933)"><path fill="#fdefe8" fill-rule="evenodd" d="M1458.92-478.699h1150.42v133.833H1458.92Zm0 133.833h1150.42v133.834H1458.92Z"/><path fill="#fdefe8" fill-rule="evenodd" d="M1458.92-211.032h1150.42v133.833H1458.92Z"/><path fill="#f8ccb9" fill-rule="evenodd" d="M1458.92-77.199h1150.42V56.635H1458.92Z"/><path fill="none" stroke="#000" stroke-linejoin="round" stroke-miterlimit="10" stroke-width="6.875" d="M1455.48-612.532h1157.29M1455.48-478.699h1157.29M1455.48-344.866h1157.29M1455.48-211.032h1157.29M1455.48-77.199h1157.29M1455.48 56.635h1157.29M1455.48 190.468h1157.29M1458.92-746.366V324.301M2609.34-746.366V324.301"/><text font-family="Times New Roman,Times New Roman_MSFontService,sans-serif" font-size="83" font-weight="400" transform="translate(1819.29 -387)">Address of <tspan x="380.417" y="0" font-family="Courier New,Courier New_MSFontService,sans-serif">c</tspan><tspan x="41.239" y="134">Value of </tspan><tspan x="339.178" y="134" font-family="Courier New,Courier New_MSFontService,sans-serif">b</tspan><tspan x="41.239" y="267">Value of </tspan><tspan x="339.178" y="267" font-family="Courier New,Courier New_MSFontService,sans-serif">a</tspan><tspan x="-189.635" y="407">Address of format string</tspan></text><path d="M2699.08-745.5V283.917h-9.16V-745.5Zm18.34 1024.833-22.92 45.834-22.92-45.834Z"/><text font-family="Courier New,Courier New_MSFontService,sans-serif" font-size="83" font-weight="400" transform="translate(810.127 -178)">p<tspan x="49.271" y="0">rintf</tspan><tspan x="295.625" y="0">()</tspan><tspan x="394.167" y="0" font-family="Times New Roman,Times New Roman_MSFontService,sans-serif">’s</tspan><tspan x="-57.269" y="105" font-family="Times New Roman,Times New Roman_MSFontService,sans-serif">internal pointer</tspan></text><path d="M1293.5-147.917h124.896v-9.167H1293.5Zm120.313 18.333 45.833-22.916-45.834-22.917Z"/><text font-family="Times New Roman,Times New Roman_MSFontService,sans-serif" font-size="83" font-weight="400" transform="translate(2751.19 -230)">s<tspan x="32.084" y="0">tack grows</tspan><tspan x="0" y="99">in this direction</tspan></text><path fill="#ff0" fill-rule="evenodd" d="M1240.07-905.062h88.23v83h-88.23Z"/><text fill="#0070c0" font-family="Courier New,Courier New_MSFontService,sans-serif" font-size="73" font-weight="400" transform="translate(357.775 -845)">p<tspan x="44.115" y="0">rintf</tspan><tspan x="264.688" y="0" fill="#000">(</tspan><tspan x="308.802" y="0" fill="#7030a0">“a has value </tspan><tspan x="882.292" y="0" fill="#7030a0" font-weight="700">%d</tspan><tspan x="970.521" y="0" fill="#7030a0">, b has value </tspan><tspan x="1588.13" y="0" fill="#7030a0" font-weight="700">%d</tspan><tspan x="1676.35" y="0" fill="#7030a0">, c is at address: </tspan><tspan x="2514.53" y="0" fill="#7030a0" font-weight="700">%08x</tspan><tspan x="2690.99" y="0" fill="#548235">\</tspan><tspan x="2735.1" y="0" fill="#548235">n</tspan><tspan x="2779.22" y="0" fill="#7030a0">”</tspan><tspan x="2823.33" y="0" fill="#000">, a, b, </tspan><tspan x="3176.25" y="0" fill="#c00000">&amp;</tspan><tspan x="3220.36" y="0" fill="#000">c);</tspan></text></g></svg>
